X: 190
T:Gens de Lignières
M:6/8
L:1/8
Q:80
C:trad
O:France
A:Bas-Maine
W:Quand j'étais chez mon père
W:Petit garçon pastoureau
W:On m'envoyait aux champs
W:Pour garder les agneaux.
W:
W:Refrain
W:You! you! gens de Lignières
W:Vous ne m'entendez guère
W:You! you! gens de Couptrain
W:Vous ne m'entendez point.
W:
W:On m'envoyait aux champs
W:Pour garder les agneaux
W:Le loup, il est venu
W:Qu'a mangé le plus biau.
W:
W:Le loup, il est venu
W:Qu'a mangé le plus biau
W:Mais le vilain goulu
W:Ne m'a laissé qu'les os.
W:
W:Mais le vilain goulu
W:Ne m'a laissé qu'les os
W:J'ai choisi le plus gros
W:Pour faire un chalumiau.
W:
W:J'ai choisi le plus gros
W:Pour faire un chalumiau
W:Oh! le vilain goulu
W:Qui a mangé la piau !
W:
W:Oh! le vilain goulu
W:Qui a mangé la piau !
W:J'avons ben pris la queue
W:Pour mettre à mon chap
K:G
GGGG2D|G3 G2 z|GGG G2D|G3 G z2|
BBBB2c|B3A2 z|AAAA2B|A3 G z2|
B2 z B2 z|BA cB2 B|AAAA2B|A3 G2 z|
B2 z B2 z|BA cB3|AAAA2A|G3 G2 z|
W:
W: From "Falaleiro" http://home.t-online.de/home/pheld/homepage.htm

